X: 12337
T: Falcon On The Hedge, The
R: jig
M: 6/8
K: Dmajor
E|:F2E DFA|B2A A2d|BAA dAA|B/c/dB BAG|F2E DFA|
B2A A2A|1 B/c/de ecA|ded dAG:|2 B/c/de e2d|~e3 e2d||
efg B2A|efg a2g|efg B2A|ded dBA|
efg B2A|efg a3|age edB|~e3 e2d|
efg B2A|efg a2g|efg B2A|aeg edB|
efg B2A|efg a2g|efg B2A|~A3 A2E||

